X:1100
T:Shores of Amarthoy, The
C:Joe Buchanan's Scottish Tome - Page 627.3
I:627 3
Z:Carl Allison
R:Folk
L:1/4
M:3/4
K:C
|: G | "C"G>E D | C2 E/G/ | "F"c d B | "C"c2E/F/ | "G"G2 F/D/ | "G"B,2D | "C"C3- | C2 B/c/ |
"G"d3 | "G"G A B | "Am"c d>B | "F"c2 B/A/ | "C"G3 | "Am"E D C | "G"D3 | "G"D2 B/c/ |
"G"d3 | "G"G A B | "Am"c d>B | "F"c2 B/A/ | "C"G3 | "Am"E D C | "G"D3- | D2 E/F/ |
"C"G>E D | "Am"C2 E/G/ | "Em"c d>B | "Am"c2 E/F/ | "G"G2 F/D/ | "G7"B,2 D | "C"C3- | C2 :|
%
W:Errata: Deleted all of the B chords. Changed meter to 3/4.

